X:91
T:Johnston's Hornpipe
R:hornpipe
H:Three-part version. See #146 for four-part version.
D:De Dannan: Anthem
D:Bobby Gardiner: His Master's Choice
Z:id:hn-hornpipe-91
M:C|
K:D
dB|:A2dA ^GABG|A2dA ^GABG|ABcB AGFG|AGFG EFG^G|
A2dA ^GABG|A2dA ^GABG|ABcB AGFG|1 ~E3F DEFG:|2 ~E3F D2dc||
Bcde fdBf|gfeg fdBd|(3ccc F2 (3ccc F2|cF^Ac fedc|
Bcde fdBf|gfeg fdBd|cF~F2 cF^Ac|1 fedc B2dc:|2 fedc Bfag||
f2de f2de|fdad bdad|(3cBA eA fAed|cdef bage|
f2de f2de|fdad bdad|cdef bage|1 d2f2 d2ag:|2 d2f2 d2||

